SF_Symbols/photo.stack.fill.svg

<?xml version="1.0" encoding="UTF-8"?>
<svg xmlns="http://www.w3.org/2000/svg" xmlns:xlink="http://www.w3.org/1999/xlink" width="24" height="24" viewBox="0 0 24 24" version="1.1">
<g id="surface1">
<path style=" stroke:none;fill-rule:nonzero;fill:rgb(100%,100%,100%);fill-opacity:1;" d="M 8.90625 15.28125 C 8.484375 15.28125 8.097656 15.175781 7.75 14.96875 C 7.402344 14.753906 7.125 14.472656 6.917969 14.125 C 6.714844 13.769531 6.613281 13.386719 6.613281 12.96875 C 6.613281 12.550781 6.714844 12.171875 6.917969 11.824219 C 7.125 11.476562 7.402344 11.203125 7.75 11 C 8.097656 10.792969 8.484375 10.6875 8.90625 10.6875 C 9.328125 10.6875 9.710938 10.792969 10.050781 11 C 10.398438 11.203125 10.675781 11.476562 10.886719 11.824219 C 11.09375 12.171875 11.199219 12.550781 11.199219 12.96875 C 11.199219 13.386719 11.09375 13.769531 10.886719 14.125 C 10.675781 14.472656 10.398438 14.753906 10.050781 14.96875 C 9.710938 15.175781 9.328125 15.28125 8.90625 15.28125 Z M 4.519531 22.125 C 4.019531 22.125 3.636719 21.988281 3.363281 21.71875 C 3.101562 21.453125 2.96875 21.0625 2.96875 20.542969 L 2.96875 19.53125 L 5.40625 17.394531 C 5.613281 17.214844 5.820312 17.078125 6.019531 16.988281 C 6.222656 16.890625 6.433594 16.84375 6.65625 16.84375 C 6.886719 16.84375 7.109375 16.890625 7.324219 16.988281 C 7.546875 17.085938 7.757812 17.226562 7.957031 17.40625 L 9.699219 18.957031 L 14.0625 15.113281 C 14.292969 14.914062 14.523438 14.765625 14.761719 14.675781 C 15.003906 14.585938 15.257812 14.542969 15.519531 14.542969 C 15.785156 14.542969 16.042969 14.589844 16.292969 14.6875 C 16.542969 14.777344 16.773438 14.921875 16.988281 15.125 L 21.019531 18.917969 L 21.019531 20.542969 C 21.019531 21.0625 20.882812 21.453125 20.605469 21.71875 C 20.332031 21.988281 19.953125 22.125 19.457031 22.125 Z M 4.457031 23.800781 L 19.53125 23.800781 C 20.578125 23.800781 21.367188 23.539062 21.894531 23.011719 C 22.429688 22.484375 22.699219 21.703125 22.699219 20.667969 L 22.699219 10.1875 C 22.699219 9.152344 22.429688 8.375 21.894531 7.855469 C 21.367188 7.328125 20.578125 7.0625 19.53125 7.0625 L 4.457031 7.0625 C 3.402344 7.0625 2.609375 7.328125 2.082031 7.855469 C 1.554688 8.375 1.292969 9.152344 1.292969 10.1875 L 1.292969 20.667969 C 1.292969 21.707031 1.554688 22.488281 2.082031 23.011719 C 2.609375 23.539062 3.402344 23.800781 4.457031 23.800781 Z M 3.28125 5.386719 L 20.71875 5.386719 C 20.636719 4.914062 20.46875 4.550781 20.21875 4.300781 C 19.976562 4.046875 19.59375 3.917969 19.074219 3.917969 L 4.925781 3.917969 C 4.40625 3.917969 4.019531 4.046875 3.769531 4.300781 C 3.519531 4.550781 3.359375 4.914062 3.28125 5.386719 Z M 5.425781 2.5 L 18.574219 2.5 C 18.539062 2.054688 18.394531 1.722656 18.144531 1.5 C 17.894531 1.269531 17.527344 1.15625 17.042969 1.15625 L 6.949219 1.15625 C 6.46875 1.15625 6.101562 1.269531 5.84375 1.5 C 5.59375 1.722656 5.453125 2.054688 5.425781 2.5 Z M 5.425781 2.5 "/>
</g>
</svg>

<svg xmlns="http://www.w3.org/2000/svg" width="24" height="24"><path style="stroke:none;fill-rule:nonzero;fill:#fff;fill-opacity:1" d="M8.906 15.281c-.422 0-.808-.105-1.156-.312a2.423 2.423 0 0 1-.832-.844 2.266 2.266 0 0 1-.305-1.156c0-.418.102-.797.305-1.145.207-.347.484-.62.832-.824.348-.207.75-.316 1.156-.313.422 0 .805.106 1.145.313.347.203.625.477.836.824.207.348.312.727.312 1.145 0 .418-.105.8-.312 1.156-.211.348-.489.629-.836.844-.34.207-.723.312-1.145.312ZM4.52 22.125c-.5 0-.883-.137-1.157-.406-.261-.266-.394-.657-.394-1.176v-1.012l2.437-2.136c.184-.165.39-.301.614-.407.203-.097.414-.144.636-.144.23 0 .453.047.668.144.223.098.434.239.633.418l1.742 1.551 4.364-3.844c.23-.199.46-.347.699-.437.242-.09.496-.133.758-.133.265 0 .523.047.773.145.25.09.48.234.695.437l4.032 3.793v1.625c0 .52-.137.91-.415 1.176-.273.27-.652.406-1.148.406Zm-.063 1.676h15.074c1.047 0 1.836-.262 2.364-.79.535-.527.804-1.308.804-2.343v-10.48c0-1.036-.27-1.813-.804-2.333-.528-.527-1.317-.793-2.364-.793H4.457c-1.055 0-1.848.266-2.375.793-.527.52-.789 1.297-.789 2.332v10.481c0 1.039.262 1.82.789 2.344.527.527 1.32.789 2.375.789ZM3.281 5.387H20.72c-.082-.473-.25-.836-.5-1.086-.242-.254-.625-.383-1.145-.383H4.926c-.52 0-.906.129-1.156.383-.25.25-.41.613-.489 1.086ZM5.426 2.5h13.148c-.035-.445-.18-.777-.43-1-.25-.23-.617-.344-1.101-.344H6.949c-.48 0-.847.114-1.105.344-.25.223-.39.555-.418 1Zm0 0"/></svg>
